X: 33539
T: Rainy Night Under The Bridge
R: polka
M: 2/4
K: Edorian
B3 A|FB AF|B3 A|Be ed|
B3 A|FB AF|(3Bcd AF|FE E2:|
fe ed/e/|fd de|fe ed/e/|fb ba|
fg/f/ ef|df ed|(3Bcd ef/|g2 f2:|

